remix/Finance/increase-decrease-fill.svg

<svg viewBox="0 0 24 24" fill="currentColor" xmlns="http://www.w3.org/2000/svg"><path d="M3.00488 3.00275H21.0049C21.5572 3.00275 22.0049 3.45046 22.0049 4.00275V20.0027C22.0049 20.555 21.5572 21.0027 21.0049 21.0027H3.00488C2.4526 21.0027 2.00488 20.555 2.00488 20.0027V4.00275C2.00488 3.45046 2.4526 3.00275 3.00488 3.00275ZM9.00488 11.0027V9.00275H7.00488V11.0027H5.00488V13.0027H7.00488V15.0027H9.00488V13.0027H11.0049V11.0027H9.00488ZM13.0049 11.0027V13.0027H19.0049V11.0027H13.0049Z"/></svg>

<svg viewBox="0 0 24 24" xmlns="http://www.w3.org/2000/svg"><path fill="none" d="M0 0h24v24H0Z"/><path d="M3 3h18v0c.55 0 1 .44 1 1v16 0c0 .55-.45 1-1 1H3v0c-.56 0-1-.45-1-1V4v0c0-.56.44-1 1-1Zm6 8V9H7v2H5v2h2v2h2v-2h2v-2H9Zm4 0v2h6v-2h-6Z"/></svg>
